icons/door-closed-fill.svg

<svg viewBox="0 0 24 24" fill="currentColor" xmlns="http://www.w3.org/2000/svg">
    <path d="M2.99805 21V19H4.99805V4C4.99805 3.44772 5.44576 3 5.99805 3H17.998C18.5503 3 18.998 3.44772 18.998 4V19H20.998V21H2.99805ZM14.998 11H12.998V13H14.998V11Z"/>
</svg>

<svg xmlns="http://www.w3.org/2000/svg" viewBox="0 0 24 24">
    <g>
        <path fill="none" d="M0 0H24V24H0z"/>
        <path d="M3 21v-2h2V4c0-.552.448-1 1-1h12c.552 0 1 .448 1 1v15h2v2H3zm12-10h-2v2h2v-2z"/>
    </g>
</svg>
